icons/nodes_add.svg

<?xml version="1.0" encoding="UTF-8" standalone="no"?>
<svg
   width="32"
   height="32"
   viewBox="0 0 32 32"
   version="1.1"
   xml:space="preserve"
   style="clip-rule:evenodd;fill-rule:evenodd;stroke-linejoin:round"
   id="svg1501"
   sodipodi:docname="nodes_add.svg"
   inkscape:version="1.1.2 (b8e25be833, 2022-02-05)"
   xmlns:inkscape="http://www.inkscape.org/namespaces/inkscape"
   xmlns:sodipodi="http://sodipodi.sourceforge.net/DTD/sodipodi-0.dtd"
   xmlns="http://www.w3.org/2000/svg"
   xmlns:svg="http://www.w3.org/2000/svg"><sodipodi:namedview
   id="namedview1503"
   pagecolor="#ffffff"
   bordercolor="#666666"
   borderopacity="1.0"
   inkscape:pageshadow="2"
   inkscape:pageopacity="0.0"
   inkscape:pagecheckerboard="0"
   showgrid="false"
   inkscape:zoom="12.171875"
   inkscape:cx="32"
   inkscape:cy="32"
   inkscape:window-width="1920"
   inkscape:window-height="1001"
   inkscape:window-x="-9"
   inkscape:window-y="-9"
   inkscape:window-maximized="1"
   inkscape:current-layer="svg1501" />
    
    <g
   id="g1588"
   transform="matrix(0.6308402,0,0,0.6308402,-4.1868864,-4.1868864)"><path
     d="M 27.102,27.102 V 7.857 h 9.796 v 19.245 h 19.245 v 9.796 H 36.898 V 56.143 H 27.102 V 36.898 H 7.857 v -9.796 z"
     style="fill:url(#_Linear1);stroke:#2e3436;stroke-width:2.44px"
     id="path1488" /><g
     id="g1492">
        <path
   d="M 28.501,28.501 V 9.645 h 6.998 v 18.856 h 18.856 v 6.998 H 35.499 V 54.355 H 28.501 V 35.499 H 9.645 v -6.998 z"
   style="fill:none;stroke:#d3d7cf;stroke-width:1.88px;stroke-linejoin:miter"
   id="path1490" />
    </g></g>
    <defs
   id="defs1499">
        <linearGradient
   id="_Linear1"
   x1="0"
   y1="0"
   x2="1"
   y2="0"
   gradientUnits="userSpaceOnUse"
   gradientTransform="matrix(51.58,0,0,51.58,7.93,15.457)"><stop
     offset="0"
     style="stop-color:rgb(198,202,194);stop-opacity:1"
     id="stop1494" /><stop
     offset="1"
     style="stop-color:rgb(57,62,53);stop-opacity:1"
     id="stop1496" /></linearGradient>
    </defs>
</svg>

<?xml version="1.0" encoding="UTF-8" standalone="no"?>
<!DOCTYPE svg PUBLIC "-//W3C//DTD SVG 1.1//EN" "http://www.w3.org/Graphics/SVG/1.1/DTD/svg11.dtd">
<svg width="100%" height="100%" viewBox="0 0 64 64" version="1.1" xmlns="http://www.w3.org/2000/svg" xmlns:xlink="http://www.w3.org/1999/xlink" xml:space="preserve" xmlns:serif="http://www.serif.com/" style="fill-rule:evenodd;clip-rule:evenodd;stroke-linejoin:round;">
    <path d="M27.102,27.102L27.102,7.857L36.898,7.857L36.898,27.102L56.143,27.102L56.143,36.898L36.898,36.898L36.898,56.143L27.102,56.143L27.102,36.898L7.857,36.898L7.857,27.102L27.102,27.102Z" style="fill:url(#_Linear1);stroke:rgb(46,52,54);stroke-width:2.44px;"/>
    <g>
        <path d="M28.501,28.501L28.501,9.645L35.499,9.645L35.499,28.501L54.355,28.501L54.355,35.499L35.499,35.499L35.499,54.355L28.501,54.355L28.501,35.499L9.645,35.499L9.645,28.501L28.501,28.501Z" style="fill:none;stroke:rgb(211,215,207);stroke-width:1.88px;stroke-linejoin:miter;"/>
    </g>
    <defs>
        <linearGradient id="_Linear1" x1="0" y1="0" x2="1" y2="0" gradientUnits="userSpaceOnUse" gradientTransform="matrix(51.58,0,0,51.58,7.93,15.457)"><stop offset="0" style="stop-color:rgb(198,202,194);stop-opacity:1"/><stop offset="1" style="stop-color:rgb(57,62,53);stop-opacity:1"/></linearGradient>
    </defs>
</svg>
